components/TopBar/images/logo-white.svg

<?xml version="1.0" encoding="UTF-8" standalone="no"?>
<svg width="104px" height="16px" viewBox="0 0 104 16" version="1.1" xmlns="http://www.w3.org/2000/svg" xmlns:xlink="http://www.w3.org/1999/xlink">
    <!-- Generator: Sketch 3.7.1 (28215) - http://www.bohemiancoding.com/sketch -->
    <title>Page 1</title>
    <desc>Created with Sketch.</desc>
    <defs></defs>
    <g id="Page-1" stroke="none" stroke-width="1" fill="none" fill-rule="evenodd">
        <path d="M66.6853147,8.05594406 C66.6853147,5.03496503 64.5034965,2.57342657 61.4265734,2.57342657 C58.3496503,2.57342657 56.2237762,5.03496503 56.2237762,8.05594406 C56.2237762,11.0769231 58.4055944,13.5384615 61.4825175,13.5384615 C64.5594406,13.5384615 66.6853147,11.0769231 66.6853147,8.05594406 L66.6853147,8.05594406 Z M66.7972028,15.7202797 L66.7972028,14.041958 C65.3986014,15.2727273 63.5524476,16 61.4265734,16 C58.5174825,16 56.1678322,14.6573427 54.7692308,12.6433566 C53.3706294,14.6573427 51.020979,16 48.1118881,16 C43.3566434,16 40.0559441,12.4195804 40.0559441,8.05594406 C40.0559441,3.69230769 43.4125874,0.0559440559 48.1118881,0.0559440559 C50.0699301,0.0559440559 51.8041958,0.671328671 53.1468531,1.73426573 C52.5874126,2.46153846 52.1398601,3.24475524 51.7482517,4.08391608 C50.7972028,3.13286713 49.5664336,2.51748252 48.0559441,2.51748252 C44.979021,2.51748252 42.8531469,4.97902098 42.8531469,8 C42.8531469,11.020979 45.034965,13.4825175 48.1118881,13.4825175 C51.1888112,13.4825175 53.3146853,11.020979 53.3146853,8 C53.3146853,3.63636364 56.6713287,0 61.3706294,0 C66.1258741,0 69.4265734,3.58041958 69.4265734,7.94405594 L69.4265734,15.6643357 L66.7972028,15.6643357 L66.7972028,15.7202797 Z M10.013986,1.45454545 C8.67132867,0.559440559 7.1048951,0.111888112 5.25874126,0.111888112 C2.18181818,0.111888112 0,1.9020979 0,4.58741259 C0,7.44055944 1.84615385,8.39160839 5.14685315,9.23076923 C8,9.9020979 8.61538462,10.4615385 8.61538462,11.5804196 C8.61538462,12.7552448 7.55244755,13.5384615 5.87412587,13.5384615 C4.36363636,13.5384615 3.18881119,13.0909091 2.01398601,12.3076923 L0.783216783,14.4895105 C2.29370629,15.4405594 4.02797203,15.9440559 5.81818182,15.9440559 C9.06293706,15.9440559 11.3006993,14.2097902 11.3006993,11.3006993 C11.3006993,8.72727273 9.62237762,7.55244755 6.37762238,6.76923077 C3.41258741,6.04195804 2.74125874,5.53846154 2.74125874,4.30769231 C2.74125874,3.3006993 3.69230769,2.46153846 5.25874126,2.46153846 C6.43356643,2.46153846 7.60839161,2.85314685 8.78321678,3.58041958 L10.013986,1.45454545 Z M78.6013986,0.111888112 C74.4055944,0.111888112 71.7762238,2.51748252 71.7762238,7.16083916 L71.7762238,15.7202797 L74.6293706,15.7202797 L74.6293706,7.27272727 C74.6293706,4.30769231 76.1958042,2.68531469 78.7132867,2.68531469 C81.2307692,2.68531469 82.7972028,4.30769231 82.7972028,7.27272727 L82.7972028,15.7202797 L85.6503497,15.7202797 L85.6503497,7.16083916 C85.6503497,2.51748252 82.965035,0.111888112 78.8251748,0.111888112 L78.6013986,0.111888112 L78.6013986,0.111888112 Z M100.251748,8.05594406 C100.251748,11.0769231 98.1258741,13.5384615 95.048951,13.5384615 C91.972028,13.5384615 89.7902098,11.0769231 89.7902098,8.05594406 C89.7902098,5.03496503 91.9160839,2.57342657 94.993007,2.57342657 C98.0699301,2.51748252 100.251748,5.03496503 100.251748,8.05594406 L100.251748,8.05594406 Z M103.104895,8 C103.104895,3.63636364 99.8041958,0.0559440559 95.048951,0.0559440559 C90.2937063,0.0559440559 86.993007,3.69230769 86.993007,8.05594406 C86.993007,12.4195804 90.2937063,16 95.048951,16 C99.8041958,16 103.104895,12.3636364 103.104895,8 L103.104895,8 Z M24.8391608,15.7202797 L27.6363636,15.7202797 L27.6363636,7.16083916 C27.6363636,4.1958042 29.2027972,2.68531469 31.6643357,2.68531469 C34.1818182,2.68531469 35.7482517,4.30769231 35.7482517,7.27272727 L35.7482517,15.7202797 L38.5454545,15.7202797 L38.5454545,7.16083916 C38.5454545,2.51748252 35.8601399,0.111888112 31.7202797,0.111888112 C27.5244755,0.111888112 24.7832168,2.51748252 24.7832168,7.32867133 L24.7832168,15.7202797 L24.8391608,15.7202797 Z M25.7342657,0.335664336 L19.5804196,10.5174825 L19.5804196,15.7202797 L16.7832168,15.7202797 L16.7832168,10.5734266 L10.6293706,0.27972028 L13.7622378,0.335664336 L18.1818182,8 L22.6013986,0.335664336 L25.7342657,0.335664336 Z" fill="#FFFFFF"></path>
    </g>
</svg>

<svg width="104" height="16" viewBox="0 0 104 16" xmlns="http://www.w3.org/2000/svg"><path d="M66.685 8.056c0-3.021-2.182-5.483-5.259-5.483-3.077 0-5.203 2.462-5.203 5.483 0 3.021 2.182 5.483 5.259 5.483 3.077 0 5.203-2.462 5.203-5.483zm.112 7.664v-1.678c-1.399 1.231-3.245 1.958-5.371 1.958-2.909 0-5.259-1.343-6.657-3.357-1.399 2.014-3.748 3.357-6.657 3.357-4.755 0-8.056-3.58-8.056-7.944s3.357-8 8.056-8c1.958 0 3.692.615 5.035 1.678-.559.727-1.007 1.51-1.399 2.35-.951-.951-2.182-1.566-3.692-1.566-3.077 0-5.203 2.462-5.203 5.483 0 3.021 2.182 5.483 5.259 5.483 3.077 0 5.203-2.462 5.203-5.483 0-4.364 3.357-8 8.056-8 4.755 0 8.056 3.58 8.056 7.944v7.72h-2.629v.056zm-56.783-14.266c-1.343-.895-2.909-1.343-4.755-1.343-3.077 0-5.259 1.79-5.259 4.476 0 2.853 1.846 3.804 5.147 4.643 2.853.671 3.469 1.231 3.469 2.35 0 1.175-1.063 1.958-2.741 1.958-1.51 0-2.685-.448-3.86-1.231l-1.231 2.182c1.51.951 3.245 1.455 5.035 1.455 3.245 0 5.483-1.734 5.483-4.643 0-2.573-1.678-3.748-4.923-4.531-2.965-.727-3.636-1.231-3.636-2.462 0-1.007.951-1.846 2.517-1.846 1.175 0 2.35.392 3.524 1.119l1.231-2.126zm68.587-1.343c-4.196 0-6.825 2.406-6.825 7.049v8.559h2.853v-8.448c0-2.965 1.566-4.587 4.084-4.587 2.517 0 4.084 1.622 4.084 4.587v8.448h2.853v-8.559c0-4.643-2.685-7.049-6.825-7.049h-.224zm21.65 7.944c0 3.021-2.126 5.483-5.203 5.483-3.077 0-5.259-2.462-5.259-5.483 0-3.021 2.126-5.483 5.203-5.483 3.077-.056 5.259 2.462 5.259 5.483zm2.853-.056c0-4.364-3.301-7.944-8.056-7.944-4.755 0-8.056 3.636-8.056 8s3.301 7.944 8.056 7.944c4.755 0 8.056-3.636 8.056-8zm-78.266 7.72h2.797v-8.559c0-2.965 1.566-4.476 4.028-4.476 2.517 0 4.084 1.622 4.084 4.587v8.448h2.797v-8.559c0-4.643-2.685-7.049-6.825-7.049-4.196 0-6.937 2.406-6.937 7.217v8.392h.056zm.895-15.385l-6.154 10.182v5.203h-2.797v-5.147l-6.154-10.294 3.133.056 4.42 7.664 4.42-7.664h3.133z" fill="#fff"/></svg>
